X: 34
T: No_127_Song_of_Enlistment_in_the_Civil_War.krn
N: Derived from No_127_Song_of_Enlistment_in_the_Civil_War.krn
%%abc-version 2.0
%%abcx-abcm2ps-target-version 5.9.1 (29 Sep 2008)
%%abc-creator hum2abc beta
%%abcx-conversion-date 2019/03/15 08:35:44
%%humdrum-veritas 200258550
%%humdrum-veritas-data 81387268
%%linebreak <none>
%%barnumbers 0
L: 1/16
M: 3/4
K: G clef=bass
[K:clef=bass][M:3/4]DDDD D2D2D4 | 
B,B,B,B, G,2G,2G,4 ]|:  
G,G,G,G, E,2D,2 D,2 z2 ||  
[M:2/4]G,2G,2G,4 ||  
[M:3/4]A,A,A,A, C2B,2B,4 | 
A,A,A,A, G,2G,2 G,2 z2 | 
B,B,B,B, G,2G,2G,4 | 
E,D,D,D, F,2E,2D,4 | 
B,,B,,B,,B,, B,,2B,,2 G,,2 z2 | 
B,,B,,B,,B,, D,2D,2B,,4 | 
B,,B,,B,,B,, B,,2B,,2 G,,2 z2 ||  
[M:2/4]D2D2D4 | 
D2D2D4 ||  
[M:3/4]CCCC A,2G,2G,4 :|]  



